public/assets/images/bgcity.svg

<svg xmlns="http://www.w3.org/2000/svg" width="1440" height="708" viewBox="0 0 1440 708">
  <path fill="#BBC4EF" d="M-854,535.598574 C-605.809764,435.636294 -343.986467,373.626816 -77.3357016,351.655629 L-77.3357016,261.487519 L-51.374778,261.487519 L-51.374778,311.260316 L-16.0390764,311.260316 L-16.0390764,212.436067 L-4.5008881,212.436067 L-4.5008881,176.368823 L48.8632327,176.368823 L48.8632327,208.829343 L73.3818828,208.829343 L73.3818828,332.900662 L94.294849,332.900662 L94.294849,279.521141 L120.255773,279.521141 L120.255773,342.278146 L139.726465,342.278146 L139.726465,111.447784 L178.307282,72.8558329 L178.307282,251.388691 L214.724689,251.388691 L214.724689,346.606215 L257.271758,346.606215 L257.271758,161.220581 L290.44405,161.220581 L290.44405,189.353031 L311.357016,189.353031 L311.357016,325.687213 L350.298401,325.687213 L350.298401,246.339277 L406.547069,246.339277 L406.547069,325.687213 L447.651865,325.687213 L447.651865,252.110036 L498.852575,252.110036 L498.852575,320.637799 L565.918295,320.637799 L565.918295,196.56648 L590.436945,172.040754 L607.023091,172.040754 L607.023091,133.08813 L627.936057,133.08813 L627.936057,172.762099 L648.849023,172.762099 L667.238011,191.156393 L667.238011,309.651717 L695.722913,309.651717 L695.722913,254.27407 L728.174067,254.27407 L728.174067,199.451859 L761.346359,166.269995 L761.346359,234.797759 L793.076377,234.797759 L793.076377,156.171167 L849.325044,156.171167 L849.325044,200.894549 L881.055062,200.894549 L881.055062,257.880795 L938.746004,257.880795 L938.746004,122.41944 L986.34103,122.41944 L986.34103,234.076414 L1013.74423,234.076414 L1013.74423,27.050433 C1013.74423,27.050433 1015.90764,0 1040.78686,0 C1065.66607,0 1067.46892,26.6897606 1067.46892,26.6897606 L1067.46892,244.896587 L1137.77975,244.896587 L1137.77975,215.682119 L1182.90128,215.682119 L1182.90128,234.076414 L1209.89343,234.076414 L1209.89343,202.337239 L1223.59503,202.337239 L1252.80107,173.122771 L1279.84369,173.122771 L1279.84369,202.337239 L1330.32327,202.337239 L1330.32327,177.090168 L1344.38544,163.023943 L1344.38544,182.860927 L1355.56306,182.860927 L1355.56306,257.880795 L1386.57194,257.880795 L1386.57194,44.3627101 L1395.94671,44.3627101 L1395.94671,117.939888 L1415.41741,117.939888 L1415.41741,198.730515 L1447.86856,198.730515 L1447.86856,166.99134 L1468.06039,166.99134 L1468.06039,254.27407 C1608.86234,254.634743 1817.40789,273.065104 2049.29663,363.197147 C2182.86558,415.133979 2310.28323,478.129027 2394,535.598574 L2394,708 L-854,708 L-854,535.598574 Z" opacity=".25"/>
</svg>

<svg xmlns="http://www.w3.org/2000/svg" width="1440" height="708"><path fill="#BBC4EF" d="M-854 535.599A2664.531 2664.531 0 0 1-77.336 351.656v-90.168h25.961v49.772h35.336v-98.824h11.538V176.37h53.364v32.46h24.519v124.072h20.913v-53.38h25.96v62.757h19.471v-230.83l38.581-38.592v178.533h36.418v95.217h42.547V161.221h33.172v28.132h20.913v136.334h38.941V246.34h56.25v79.348h41.104V252.11h51.2v68.528h67.066V196.566l24.519-24.525h16.586v-38.953h20.913v39.674h20.913l18.389 18.394v118.496h28.485v-55.378h32.451v-54.822l33.172-33.182v68.528h31.73V156.17h56.249v44.724h31.73v56.986h57.691V122.419h47.595v111.657h27.403V27.05S1015.908 0 1040.787 0c24.88 0 26.682 26.69 26.682 26.69v218.207h70.31v-29.215h45.122v18.394h26.992v-31.739h13.702l29.206-29.214h27.043v29.214h50.48V177.09l14.061-14.066v19.837h11.178v75.02h31.009V44.363h9.375v73.577h19.47v80.79h32.452v-31.739h20.191v87.283c140.802.36 349.348 18.791 581.237 108.923C2182.866 415.134 2310.283 478.13 2394 535.6V708H-854V535.599Z" opacity=".25"/></svg>
